X:01
T:Donoghue's Reel
M:C
Z: Contributed 2016-03-09 05:55:50 by Donald Young donaldyoung1@mac.com
K:EDor
|BE~E2 D2GA|BE~E2 DEGA|BE~E2 DEGA|BedB A/B/AGA|BE~E2 DEGA|B2EE D2GA|BEEE DEGA|BedB A2GA||\
Beed BAGA|B/c/def gfed|Beed BAGA|BedB A/B/AGA|BBed BAGA|B/c/def g2fg|eeef edBA|BddB ADGA|]
